packages/foundations/assets/icons/functional/images/transportation/ship.svg

<svg xmlns="http://www.w3.org/2000/svg" width="32" height="32" fill="none"><path fill="#1A1C1F" fill-rule="evenodd" d="M3.6 3.596c-.331.148-.611.566-.611.911s.323.804.654.93c.104.039 2.321.057 7.094.058 6.639.001 6.953.005 7.16.099.402.183.503.372.893 1.679.196.656.357 1.208.357 1.227 0 .018-3.026.033-6.723.033-7.322 0-6.849-.02-7.154.302-.49.519-.262 1.37.431 1.609.135.047 1.953.063 7.121.063h6.939l.419 1.391c.23.765.431 1.437.446 1.493.026.1-.128.102-8.34.103-5.673 0-8.431.018-8.567.056-.456.126-.779.62-.709 1.083.045.302.278.626.544.758.201.1.49.103 11.766.116 9.875.012 11.56.025 11.56.088 0 .042-.081.395-.18.787-.54 2.133-1.476 3.716-2.983 5.042-.535.47-.635.601-.703.915-.096.448.259.991.736 1.125.507.142.917-.114 2.013-1.259 1.264-1.321 2.126-2.79 2.71-4.617.353-1.106.612-2.886.486-3.351-.079-.293-.383-.605-.667-.684-.142-.04-1.098-.059-2.879-.059l-2.667-.001-1.034-3.453c-1.339-4.473-1.457-4.836-1.677-5.162-.249-.366-.748-.817-1.13-1.02-.671-.356-.234-.338-8.059-.336-5.817.002-7.115.015-7.246.074m1.424 13.995c-1.023.365-1.351 1.614-.63 2.4.305.332.661.489 1.099.484.191-.002.423-.031.517-.066.76-.28 1.159-1.134.894-1.913-.253-.742-1.14-1.169-1.88-.905m5.136-.048c-.475.117-.912.508-1.064.953-.265.779.134 1.633.894 1.913.094.035.326.064.517.066 1.131.012 1.848-1.206 1.293-2.195-.326-.581-1.014-.89-1.64-.737m4.93.02a1.505 1.505 0 0 0-.933 2.088c.263.538.752.83 1.386.828.551-.002 1.032-.307 1.297-.821.184-.359.198-.9.032-1.263-.303-.662-1.086-1.028-1.782-.832m5.006.002c-1.115.313-1.461 1.722-.621 2.525.53.507 1.441.525 2.009.039.478-.409.64-1.129.385-1.714-.133-.307-.492-.673-.775-.791a1.76 1.76 0 0 0-.998-.059M5.969 24.551c-.264.097-.337.157-.848.692-.559.586-1.095.95-1.659 1.129-.235.074-.48.135-.545.136-.173.002-.525.178-.671.336-.07.076-.159.259-.197.407a.96.96 0 0 0 .256.947c.229.221.404.282.81.282.848 0 1.844-.447 2.83-1.271l.318-.265.263.236c.611.55 1.48 1.032 2.197 1.218.407.107 1.126.104 1.567-.004.662-.164 1.484-.613 2.128-1.164.156-.134.309-.243.339-.243.029 0 .178.111.328.247a5.7 5.7 0 0 0 1.832 1.092c.454.161 1.336.197 1.842.077.715-.171 1.89-.835 2.303-1.301.055-.064.127-.115.16-.115.032 0 .254.162.493.36q.793.66 1.645.955c.381.133.501.149 1.12.15.585.001.751-.018 1.061-.122a5.4 5.4 0 0 0 1.909-1.124l.293-.268.332.281c1.039.879 2.355 1.392 3.175 1.239.287-.054.599-.359.693-.677a.96.96 0 0 0-.53-1.174 1.1 1.1 0 0 0-.377-.099c-.53-.004-1.221-.418-2.099-1.256-.315-.301-.647-.585-.739-.633-.216-.111-.665-.11-.904.004-.107.051-.295.23-.433.413-.396.526-.964 1.06-1.288 1.212-.902.423-1.833.311-2.603-.314-.127-.103-.407-.407-.623-.675-.463-.576-.69-.726-1.102-.726-.39 0-.607.128-.915.538-.43.574-.876.995-1.241 1.175a2.57 2.57 0 0 1-1.498.221c-.719-.123-1.23-.485-1.858-1.316-.371-.49-.573-.618-.974-.618-.434 0-.626.13-1.079.724-.62.814-1.202 1.173-2 1.234-.928.071-1.719-.371-2.495-1.396-.155-.204-.353-.413-.44-.464-.224-.13-.55-.164-.776-.08"/></svg>

<svg width="32" height="32" viewBox="0 0 32 32" fill="none" xmlns="http://www.w3.org/2000/svg"><path d="M3.600 3.596 C 3.269 3.744,2.989 4.162,2.989 4.507 C 2.989 4.852,3.312 5.311,3.643 5.437 C 3.747 5.476,5.964 5.494,10.737 5.495 C 17.376 5.496,17.690 5.500,17.897 5.594 C 18.299 5.777,18.400 5.966,18.790 7.273 C 18.986 7.929,19.147 8.481,19.147 8.500 C 19.147 8.518,16.121 8.533,12.424 8.533 C 5.102 8.533,5.575 8.513,5.270 8.835 C 4.780 9.354,5.008 10.205,5.701 10.444 C 5.836 10.491,7.654 10.507,12.822 10.507 L 19.761 10.507 20.180 11.898 C 20.410 12.663,20.611 13.335,20.626 13.391 C 20.652 13.491,20.498 13.493,12.286 13.494 C 6.613 13.494,3.855 13.512,3.719 13.550 C 3.263 13.676,2.940 14.170,3.010 14.633 C 3.055 14.935,3.288 15.259,3.554 15.391 C 3.755 15.491,4.044 15.494,15.320 15.507 C 25.195 15.519,26.880 15.532,26.880 15.595 C 26.880 15.637,26.799 15.990,26.700 16.382 C 26.160 18.515,25.224 20.098,23.717 21.424 C 23.182 21.894,23.082 22.025,23.014 22.339 C 22.918 22.787,23.273 23.330,23.750 23.464 C 24.257 23.606,24.667 23.350,25.763 22.205 C 27.027 20.884,27.889 19.415,28.473 17.588 C 28.826 16.482,29.085 14.702,28.959 14.237 C 28.880 13.944,28.576 13.632,28.292 13.553 C 28.150 13.513,27.194 13.494,25.413 13.494 L 22.746 13.493 21.712 10.040 C 20.373 5.567,20.255 5.204,20.035 4.878 C 19.786 4.512,19.287 4.061,18.905 3.858 C 18.234 3.502,18.671 3.520,10.846 3.522 C 5.029 3.524,3.731 3.537,3.600 3.596 M5.024 17.591 C 4.001 17.956,3.673 19.205,4.394 19.991 C 4.699 20.323,5.055 20.480,5.493 20.475 C 5.684 20.473,5.916 20.444,6.010 20.409 C 6.770 20.129,7.169 19.275,6.904 18.496 C 6.651 17.754,5.764 17.327,5.024 17.591 M10.160 17.543 C 9.685 17.660,9.248 18.051,9.096 18.496 C 8.831 19.275,9.230 20.129,9.990 20.409 C 10.084 20.444,10.316 20.473,10.507 20.475 C 11.638 20.487,12.355 19.269,11.800 18.280 C 11.474 17.699,10.786 17.390,10.160 17.543 M15.090 17.563 C 14.211 17.811,13.755 18.830,14.157 19.651 C 14.420 20.189,14.909 20.481,15.543 20.479 C 16.094 20.477,16.575 20.172,16.840 19.658 C 17.024 19.299,17.038 18.758,16.872 18.395 C 16.569 17.733,15.786 17.367,15.090 17.563 M20.096 17.565 C 18.981 17.878,18.635 19.287,19.475 20.090 C 20.005 20.597,20.916 20.615,21.484 20.129 C 21.962 19.720,22.124 19.000,21.869 18.415 C 21.736 18.108,21.377 17.742,21.094 17.624 C 20.825 17.511,20.380 17.485,20.096 17.565 M5.969 24.551 C 5.705 24.648,5.632 24.708,5.121 25.243 C 4.562 25.829,4.026 26.193,3.462 26.372 C 3.227 26.446,2.982 26.507,2.917 26.508 C 2.744 26.510,2.392 26.686,2.246 26.844 C 2.176 26.920,2.087 27.103,2.049 27.251 C 1.958 27.602,2.054 27.956,2.305 28.198 C 2.534 28.419,2.709 28.480,3.115 28.480 C 3.963 28.480,4.959 28.033,5.945 27.209 L 6.263 26.944 6.526 27.180 C 7.137 27.730,8.006 28.212,8.723 28.398 C 9.130 28.505,9.849 28.502,10.290 28.394 C 10.952 28.230,11.774 27.781,12.418 27.230 C 12.574 27.096,12.727 26.987,12.757 26.987 C 12.786 26.987,12.935 27.098,13.085 27.234 C 13.601 27.697,14.276 28.100,14.917 28.326 C 15.371 28.487,16.253 28.523,16.759 28.403 C 17.474 28.232,18.649 27.568,19.062 27.102 C 19.117 27.038,19.189 26.987,19.222 26.987 C 19.254 26.987,19.476 27.149,19.715 27.347 C 20.244 27.787,20.792 28.105,21.360 28.302 C 21.741 28.435,21.861 28.451,22.480 28.452 C 23.065 28.453,23.231 28.434,23.541 28.330 C 24.241 28.096,24.903 27.706,25.450 27.206 L 25.743 26.938 26.075 27.219 C 27.114 28.098,28.430 28.611,29.250 28.458 C 29.537 28.404,29.849 28.099,29.943 27.781 C 30.088 27.295,29.873 26.820,29.413 26.607 C 29.296 26.553,29.126 26.508,29.036 26.508 C 28.506 26.504,27.815 26.090,26.937 25.252 C 26.622 24.951,26.290 24.667,26.198 24.619 C 25.982 24.508,25.533 24.509,25.294 24.623 C 25.187 24.674,24.999 24.853,24.861 25.036 C 24.465 25.562,23.897 26.096,23.573 26.248 C 22.671 26.671,21.740 26.559,20.970 25.934 C 20.843 25.831,20.563 25.527,20.347 25.259 C 19.884 24.683,19.657 24.533,19.245 24.533 C 18.855 24.533,18.638 24.661,18.330 25.071 C 17.900 25.645,17.454 26.066,17.089 26.246 C 16.644 26.465,16.072 26.550,15.591 26.467 C 14.872 26.344,14.361 25.982,13.733 25.151 C 13.362 24.661,13.160 24.533,12.759 24.533 C 12.325 24.533,12.133 24.663,11.680 25.257 C 11.060 26.071,10.478 26.430,9.680 26.491 C 8.752 26.562,7.961 26.120,7.185 25.095 C 7.030 24.891,6.832 24.682,6.745 24.631 C 6.521 24.501,6.195 24.467,5.969 24.551 " fill="#1A1C1F" stroke="none" fill-rule="evenodd"></path></svg>
